assets/Mouse face/Flat/mouse_face_flat.svg

<svg width="32" height="32" viewBox="0 0 32 32" fill="none" xmlns="http://www.w3.org/2000/svg">
<path d="M14.9868 12.0829C14.7718 8.68741 11.9497 6 8.5 6C4.91015 6 2 8.91015 2 12.5C2 15.6421 4.22946 18.2635 7.19278 18.8685C7.12741 19.2435 7.09375 19.6219 7.09375 20C7.09375 25.2261 11.2621 28.2796 14.8289 29.3309C15.5938 29.5564 16.4081 29.5649 17.1675 29.3216C20.5413 28.2411 24.9688 24.8232 24.9688 20C24.9688 19.6604 24.9262 19.2753 24.8381 18.8621C27.786 18.2452 30 15.6312 30 12.5C30 8.91015 27.0899 6 23.5 6C20.0522 6 17.2313 8.68447 17.0135 12.0773C16.687 12.047 16.3492 12.0312 16 12.0312C15.6556 12.0312 15.3176 12.0489 14.9868 12.0829Z" fill="#CDC4D6"/>
<path d="M12 21C11.4477 21 11 21.4477 11 22V23C11 23.5523 11.4477 24 12 24C12.5523 24 13 23.5523 13 23V22C13 21.4477 12.5523 21 12 21Z" fill="#1C1C1C"/>
<path d="M20 21C19.4477 21 19 21.4477 19 22V23C19 23.5523 19.4477 24 20 24C20.5523 24 21 23.5523 21 23V22C21 21.4477 20.5523 21 20 21Z" fill="#1C1C1C"/>
<path d="M12.9765 12.5126C10.1988 13.4343 8.16545 15.5709 7.4129 17.9659C4.92813 17.6753 3 15.5628 3 13C3 10.2386 5.23858 8 8 8C10.597 8 12.7315 9.97991 12.9765 12.5126Z" fill="#FF8687"/>
<path d="M29 13C29 15.5626 27.0721 17.675 24.5877 17.9658C23.8732 15.8891 22.1185 13.4639 19.0267 12.48C19.2868 9.96291 21.4142 8 24 8C26.7614 8 29 10.2386 29 13Z" fill="#FF8687"/>
<path d="M16.0312 27.9688C17.2266 27.9688 17.9688 26.2344 17.9688 25.8594C17.9688 25.4844 17.6438 25 16.0312 25C14.2031 25 14.0156 25.4219 14.0156 25.8594C14.0156 26.1797 14.8359 27.9688 16.0312 27.9688Z" fill="#FF8687"/>
<path d="M12 26.5C12 26.2239 11.7761 26 11.5 26H6.5C6.22386 26 6 26.2239 6 26.5C6 26.7761 6.22386 27 6.5 27H11.5C11.7761 27 12 26.7761 12 26.5Z" fill="#B4ACBC"/>
<path d="M20.5 26C20.2239 26 20 26.2239 20 26.5C20 26.7761 20.2239 27 20.5 27H25.5C25.7761 27 26 26.7761 26 26.5C26 26.2239 25.7761 26 25.5 26H20.5Z" fill="#B4ACBC"/>
<path d="M19.6857 27.0358C19.4293 26.9332 19.1383 27.0579 19.0358 27.3143C18.9332 27.5707 19.0579 27.8617 19.3143 27.9642L24.3143 29.9642C24.5707 30.0668 24.8617 29.9421 24.9642 29.6857C25.0668 29.4293 24.9421 29.1383 24.6857 29.0358L19.6857 27.0358Z" fill="#B4ACBC"/>
<path d="M12.3143 27.0358C12.5707 26.9332 12.8617 27.0579 12.9642 27.3143C13.0668 27.5707 12.9421 27.8617 12.6857 27.9642L7.6857 29.9642C7.4293 30.0668 7.13832 29.9421 7.03576 29.6857C6.93321 29.4293 7.05791 29.1383 7.3143 29.0358L12.3143 27.0358Z" fill="#B4ACBC"/>
</svg>

<svg xmlns="http://www.w3.org/2000/svg" width="32" height="32" fill="none"><path fill="#CDC4D6" d="M14.987 12.083a6.5 6.5 0 1 0-7.794 6.786 6.589 6.589 0 0 0-.1 1.131c0 5.226 4.17 8.28 7.736 9.33.765.226 1.58.235 2.338-.008 3.374-1.08 7.802-4.499 7.802-9.322 0-.34-.043-.725-.13-1.138a6.5 6.5 0 1 0-7.825-6.785c-.327-.03-.665-.046-1.014-.046-.344 0-.682.018-1.013.052Z"/><path fill="#1C1C1C" d="M12 21a1 1 0 0 0-1 1v1a1 1 0 1 0 2 0v-1a1 1 0 0 0-1-1ZM20 21a1 1 0 0 0-1 1v1a1 1 0 1 0 2 0v-1a1 1 0 0 0-1-1Z"/><path fill="#FF8687" d="M12.976 12.513c-2.777.921-4.81 3.058-5.563 5.453a5 5 0 1 1 5.563-5.453ZM29 13a5 5 0 0 1-4.412 4.966c-.715-2.077-2.47-4.502-5.561-5.486A5 5 0 0 1 29 13ZM16.031 27.969c1.196 0 1.938-1.735 1.938-2.11 0-.375-.325-.859-1.938-.859-1.828 0-2.015.422-2.015.86 0 .32.82 2.109 2.015 2.109Z"/><path fill="#B4ACBC" d="M12 26.5a.5.5 0 0 0-.5-.5h-5a.5.5 0 0 0 0 1h5a.5.5 0 0 0 .5-.5ZM20.5 26a.5.5 0 0 0 0 1h5a.5.5 0 0 0 0-1h-5ZM19.686 27.036a.5.5 0 1 0-.372.928l5 2a.5.5 0 1 0 .372-.928l-5-2ZM12.314 27.036a.5.5 0 1 1 .372.928l-5 2a.5.5 0 1 1-.372-.928l5-2Z"/></svg>
